src/images/icon-phone.svg

<svg width="34" height="34" viewBox="0 0 34 34" fill="none" xmlns="http://www.w3.org/2000/svg">
<path d="M26.8851 21.0618C26.188 20.3371 25.3472 19.9496 24.4561 19.9496C23.5722 19.9496 22.7242 20.3299 21.9983 21.0546L19.7274 23.3151C19.5406 23.2146 19.3538 23.1213 19.1741 23.028C18.9154 22.8989 18.671 22.7769 18.4626 22.6477C16.3355 21.2986 14.4023 19.5405 12.5482 17.2658C11.6499 16.132 11.0463 15.1776 10.6079 14.2088C11.1972 13.6706 11.7434 13.1109 12.2752 12.5727C12.4764 12.3718 12.6776 12.1637 12.8788 11.9628C14.388 10.4558 14.388 8.50396 12.8788 6.99702L10.9169 5.03799C10.6942 4.81554 10.4642 4.58591 10.2486 4.35628C9.81742 3.91137 9.36468 3.45211 8.89757 3.02156C8.20049 2.33267 7.36687 1.9667 6.49013 1.9667C5.61339 1.9667 4.7654 2.33267 4.04676 3.02156C4.03957 3.02873 4.03957 3.02873 4.03239 3.03591L1.58902 5.49725C0.669159 6.41577 0.144553 7.53521 0.0295709 8.83405C-0.142902 10.9294 0.475127 12.8813 0.949428 14.1586C2.11362 17.2945 3.85273 20.2007 6.44701 23.3151C9.59464 27.0681 13.3819 30.0317 17.7081 32.1199C19.3609 32.9021 21.5672 33.8278 24.0321 33.9856C24.183 33.9928 24.3411 34 24.4848 34C26.1449 34 27.539 33.4044 28.6314 32.2204C28.6386 32.206 28.6529 32.1988 28.6601 32.1845C29.0338 31.7324 29.465 31.3234 29.9177 30.8857C30.2267 30.5914 30.5429 30.2829 30.852 29.96C31.5634 29.2208 31.9371 28.3597 31.9371 27.4771C31.9371 26.5873 31.5562 25.7333 30.8304 25.0158L26.8851 21.0618ZM29.4578 28.6181C29.4506 28.6252 29.4506 28.6181 29.4578 28.6181C29.1775 28.9195 28.8901 29.1921 28.5811 29.4935C28.114 29.9384 27.6397 30.4049 27.1941 30.9287C26.4683 31.7037 25.6131 32.0697 24.492 32.0697C24.3842 32.0697 24.2692 32.0697 24.1614 32.0625C22.0271 31.9262 20.0436 31.0938 18.5561 30.3833C14.4886 28.4171 10.9169 25.6257 7.94896 22.088C5.49841 19.1387 3.85991 16.4118 2.77477 13.484C2.10644 11.6972 1.8621 10.3051 1.96989 8.99192C2.04176 8.15234 2.36515 7.45628 2.96161 6.86068L5.41217 4.41369C5.7643 4.08359 6.138 3.9042 6.5045 3.9042C6.95724 3.9042 7.32375 4.17688 7.55371 4.40651C7.5609 4.41369 7.56809 4.42086 7.57527 4.42804C8.01364 4.83707 8.43045 5.26045 8.86882 5.71253C9.0916 5.94216 9.32156 6.17179 9.55153 6.40859L11.5134 8.36762C12.2752 9.12827 12.2752 9.83151 11.5134 10.5922C11.305 10.8003 11.1038 11.0084 10.8954 11.2093C10.2917 11.8264 9.71681 12.4005 9.0916 12.9602C9.07723 12.9746 9.06285 12.9817 9.05567 12.9961C8.43764 13.6132 8.55262 14.216 8.68197 14.625C8.68916 14.6465 8.69635 14.6681 8.70353 14.6896C9.21377 15.9239 9.9324 17.0864 11.0247 18.4713L11.0319 18.4785C13.0154 20.9183 15.1066 22.8199 17.4134 24.2766C17.7081 24.4632 18.0099 24.6139 18.2974 24.7574C18.5561 24.8866 18.8004 25.0086 19.0088 25.1377C19.0375 25.1521 19.0663 25.1736 19.095 25.188C19.3394 25.31 19.5693 25.3674 19.8065 25.3674C20.403 25.3674 20.7767 24.9942 20.8988 24.8722L23.3566 22.4181C23.6009 22.1741 23.989 21.8799 24.4417 21.8799C24.8873 21.8799 25.2538 22.1597 25.4765 22.4037C25.4837 22.4109 25.4837 22.4109 25.4909 22.4181L29.4506 26.372C30.1908 27.1039 30.1908 27.8574 29.4578 28.6181Z" fill="#404266"/>
<path d="M18.3764 8.08775C20.2593 8.40349 21.9696 9.2933 23.335 10.6567C24.7004 12.0202 25.5844 13.728 25.9077 15.6081C25.9868 16.0817 26.3964 16.4118 26.8635 16.4118C26.921 16.4118 26.9713 16.4046 27.0288 16.3975C27.5606 16.3114 27.9128 15.809 27.8265 15.278C27.4385 13.0033 26.3605 10.9294 24.7148 9.28613C23.0691 7.64284 20.9923 6.56645 18.7142 6.17895C18.1824 6.09284 17.6865 6.44446 17.5931 6.96831C17.4997 7.49215 17.8446 8.00164 18.3764 8.08775Z" fill="#404266"/>
<path d="M33.9852 14.9981C33.3456 11.2523 31.5778 7.8437 28.8613 5.1312C26.1449 2.4187 22.7313 0.653426 18.98 0.0147691C18.4554 -0.0785179 17.9596 0.280278 17.8662 0.80412C17.7799 1.33514 18.1321 1.83028 18.6638 1.92356C22.0127 2.49046 25.0669 4.07634 27.4959 6.49462C29.9249 8.92008 31.5059 11.9699 32.0736 15.3138C32.1527 15.7874 32.5623 16.1175 33.0294 16.1175C33.0869 16.1175 33.1372 16.1104 33.1947 16.1032C33.7193 16.0242 34.0786 15.5219 33.9852 14.9981Z" fill="#404266"/>
</svg>

<svg xmlns="http://www.w3.org/2000/svg" width="34" height="34" fill="none"><path fill="#404266" d="M26.9 21.06c-.7-.72-1.55-1.1-2.44-1.1-.9 0-1.74.37-2.46 1.1l-2.27 2.26c-.2-.1-.38-.2-.56-.3-.25-.12-.5-.24-.7-.37-2.13-1.35-4.07-3.1-5.92-5.38-.9-1.14-1.5-2.1-1.94-3.06.6-.53 1.14-1.1 1.68-1.63.2-.2.4-.4.6-.6 1.5-1.5 1.5-3.47 0-4.97l-1.96-1.96c-.23-.22-.46-.45-.67-.68-.43-.45-.9-.9-1.35-1.34-.7-.7-1.53-1.05-2.4-1.05-.9 0-1.73.36-2.45 1.05 0 0 0 0-.02.02L1.6 5.5C.66 6.42.13 7.54.02 8.83c-.17 2.1.45 4.05.92 5.33 1.16 3.13 2.9 6.04 5.5 9.16 3.14 3.75 6.93 6.7 11.26 8.8 1.66.78 3.87 1.7 6.33 1.87.15 0 .3 0 .45 0 1.66 0 3.06-.6 4.15-1.78 0 0 .02-.02.03-.04.37-.45.8-.86 1.26-1.3.3-.3.62-.6.93-.92.7-.74 1.1-1.6 1.1-2.48 0-.9-.4-1.75-1.12-2.46l-3.94-3.96zm2.56 7.56c-.28.3-.57.57-.88.87-.47.44-.94.9-1.4 1.43-.7.77-1.57 1.14-2.7 1.14-.1 0-.2 0-.32 0-2.13-.14-4.12-.98-5.6-1.7-4.07-1.95-7.64-4.74-10.6-8.28-2.46-2.96-4.1-5.7-5.2-8.62-.65-1.78-.9-3.17-.8-4.5.08-.83.4-1.52 1-2.12L5.4 4.4c.36-.32.74-.5 1.1-.5.46 0 .82.28 1.05.5 0 0 .02.02.03.03.43.4.85.83 1.3 1.28.2.24.44.47.67.7l1.96 1.97c.78.76.78 1.46 0 2.22-.2.2-.4.4-.6.6-.6.63-1.18 1.2-1.8 1.76-.02 0-.04.02-.04.04-.62.6-.5 1.22-.38 1.63 0 .02.02.04.02.06.5 1.22 1.23 2.4 2.32 3.77 2 2.45 4.1 4.35 6.4 5.8.3.2.6.34.88.5.26.12.5.24.7.37.04 0 .07.03.1.05.24.1.47.17.7.17.6 0 .98-.38 1.1-.5l2.46-2.45c.24-.25.63-.54 1.08-.54.45 0 .8.28 1.04.52 0 0 0 0 0 .02l3.97 3.95c.74.73.74 1.5 0 2.25zM18.38 8.1c1.88.3 3.6 1.2 4.96 2.56 1.36 1.36 2.24 3.07 2.57 4.95.1.48.5.8.96.8.06 0 .1 0 .17 0 .53-.1.88-.6.8-1.12-.4-2.28-1.47-4.35-3.12-6-1.63-1.64-3.7-2.7-6-3.1-.52-.1-1 .26-1.1.8-.1.5.24 1.02.78 1.1zM34 15c-.65-3.75-2.42-7.16-5.14-9.87C26.14 2.43 22.73.65 18.98 0c-.52-.08-1.02.28-1.1.8-.1.54.25 1.03.78 1.12 3.35.57 6.4 2.16 8.84 4.57 2.42 2.42 4 5.47 4.57 8.8.08.5.5.82.96.82.06 0 .1 0 .16-.02.52-.08.88-.58.8-1.1z"/></svg>
